src/assets/images/mobile/MyShoppingInfo.svg

<svg width="98" height="74" viewBox="0 0 98 74" fill="none" xmlns="http://www.w3.org/2000/svg">
<g opacity="0.37">
<ellipse cx="23.4281" cy="39.6978" rx="5.39541" ry="5.24231" transform="rotate(26.3505 23.4281 39.6978)" fill="#6FB5D2"/>
<ellipse cx="32.5327" cy="44.2075" rx="5.39544" ry="5.24232" transform="rotate(26.3505 32.5327 44.2075)" fill="#6FB5D2"/>
<ellipse cx="21.5642" cy="46.1443" rx="3.85387" ry="3.74451" transform="rotate(26.3505 21.5642 46.1443)" fill="#6FB5D2"/>
<ellipse cx="28.22" cy="49.4411" rx="3.85389" ry="3.74451" transform="rotate(26.3505 28.22 49.4411)" fill="#6FB5D2"/>
<rect x="25.1815" y="40.2624" width="5.67573" height="6.33163" transform="rotate(26.3505 25.1815 40.2624)" fill="#6FB5D2"/>
</g>
<g opacity="0.55">
<ellipse cx="24.0076" cy="40.6513" rx="4.49486" ry="4.28047" transform="rotate(26.3505 24.0076 40.6513)" fill="#6FB5D2"/>
<ellipse cx="31.5925" cy="44.4083" rx="4.49485" ry="4.28047" transform="rotate(26.3505 31.5925 44.4083)" fill="#6FB5D2"/>
<ellipse cx="22.5035" cy="45.9237" rx="3.21059" ry="3.05748" transform="rotate(26.3505 22.5035 45.9237)" fill="#6FB5D2"/>
<ellipse cx="28.0482" cy="48.6702" rx="3.2106" ry="3.05748" transform="rotate(26.3505 28.0482 48.6702)" fill="#6FB5D2"/>
<rect x="25.4664" y="41.1256" width="4.72832" height="5.16991" transform="rotate(26.3505 25.4664 41.1256)" fill="#6FB5D2"/>
</g>
<ellipse cx="24.7015" cy="41.3737" rx="3.59425" ry="3.37262" transform="rotate(26.3505 24.7015 41.3737)" fill="#7FDEE4"/>
<ellipse cx="30.7667" cy="44.378" rx="3.59425" ry="3.37262" transform="rotate(26.3505 30.7667 44.378)" fill="#7FDEE4"/>
<ellipse cx="23.5268" cy="45.5332" rx="2.56732" ry="2.40901" transform="rotate(26.3505 23.5268 45.5332)" fill="#7FDEE4"/>
<ellipse cx="27.9606" cy="47.7294" rx="2.56732" ry="2.40901" transform="rotate(26.3505 27.9606 47.7294)" fill="#7FDEE4"/>
<rect x="25.8668" y="41.7555" width="3.781" height="4.07343" transform="rotate(26.3505 25.8668 41.7555)" fill="#7FDEE4"/>
<path d="M31.7821 38.2695C32.2685 38.1376 32.6618 37.9287 32.9623 37.6427C33.2682 37.3594 33.4981 37.0626 33.6518 36.7522C33.8248 36.4031 33.9023 36.0653 33.8845 35.739C33.875 35.4099 33.831 35.1086 33.7525 34.835C33.7216 34.7024 33.7418 34.564 33.8132 34.4199C33.8873 34.2703 34.0057 34.1357 34.1685 34.0161C34.334 33.891 34.5175 33.7921 34.7192 33.7195C34.9264 33.6495 35.1406 33.6142 35.3619 33.6133C35.5832 33.6125 35.7908 33.6601 35.9848 33.7562C36.2009 33.8633 36.3453 34.0246 36.4181 34.24C36.4935 34.45 36.5248 34.6794 36.5119 34.9284C36.499 35.1774 36.4543 35.4279 36.3778 35.6799C36.3041 35.9263 36.2233 36.1382 36.1354 36.3156C35.9487 36.6925 35.7038 37.0198 35.4006 37.2975C35.0946 37.5808 34.7525 37.8185 34.3743 38.0108C34.0016 38.2058 33.6025 38.3567 33.1769 38.4634C32.7486 38.5756 32.3188 38.6492 31.8874 38.684L31.7821 38.2695Z" fill="#7FDEE4"/>
<path d="M28.4756 36.614C28.2858 36.1473 28.2136 35.7077 28.2591 35.2954C28.299 34.8804 28.3959 34.5177 28.5496 34.2073C28.7225 33.8581 28.9442 33.5918 29.2146 33.4082C29.4822 33.2164 29.7485 33.0688 30.0137 32.9654C30.1379 32.9096 30.2358 32.8097 30.3071 32.6656C30.3813 32.516 30.4165 32.3402 30.413 32.1383C30.4123 31.9308 30.3797 31.7249 30.3153 31.5205C30.2454 31.3133 30.1437 31.1214 30.0103 30.9449C29.8768 30.7684 29.7131 30.6321 29.5191 30.536C29.303 30.4289 29.0872 30.4117 28.8717 30.4845C28.659 30.5516 28.4575 30.6658 28.2672 30.8269C28.077 30.9881 27.9048 31.1754 27.7507 31.389C27.5994 31.597 27.4798 31.7897 27.3919 31.967C27.2053 32.3439 27.0933 32.7371 27.0561 33.1466C27.0162 33.5617 27.0343 33.9779 27.1106 34.3952C27.1813 34.8099 27.3031 35.2188 27.4761 35.622C27.6464 36.0307 27.8484 36.4172 28.0821 36.7814L28.4756 36.614Z" fill="#7FDEE4"/>
<path d="M48 36H43.8889L43.0667 39.6667L48 36ZM39.7778 54.3333H19.2222L11 39.6667H43.0667L39.7778 54.3333ZM39.7778 54.3333L43.0667 39.6667L39.7778 54.3333ZM39.7778 54.3333L44.4912 58.5372C45.7862 59.6922 44.8694 61.6667 43.0379 61.6667H19.2222L39.7778 54.3333ZM19.2222 61.6667C20.3126 61.6667 21.3582 62.053 22.1292 62.7406C22.9002 63.4282 23.3333 64.3609 23.3333 65.3333C23.3333 66.3058 22.9002 67.2384 22.1292 67.9261C21.3582 68.6137 20.3126 69 19.2222 69C18.1319 69 17.0862 68.6137 16.3152 67.9261C15.5442 67.2384 15.1111 66.3058 15.1111 65.3333C15.1111 64.3609 15.5442 63.4282 16.3152 62.7406C17.0862 62.053 18.1319 61.6667 19.2222 61.6667ZM35.6667 65.3333C35.6667 66.3058 36.0998 67.2384 36.8708 67.9261C37.6418 68.6137 38.6874 69 39.7778 69C40.8681 69 41.9138 68.6137 42.6848 67.9261C43.4558 67.2384 43.8889 66.3058 43.8889 65.3333C43.8889 64.3609 43.4558 63.4282 42.6848 62.7406C41.9138 62.053 40.8681 61.6667 39.7778 61.6667C38.6874 61.6667 37.6418 62.053 36.8708 62.7406C36.0998 63.4282 35.6667 64.3609 35.6667 65.3333V65.3333Z" stroke="#D5D5D5" stroke-width="2" stroke-linecap="round" stroke-linejoin="round"/>
<rect x="64.506" y="40.5749" width="5.69375" height="7.12813" rx="2.84687" transform="rotate(-0.693681 64.506 40.5749)" fill="#4B4B4B" stroke="black"/>
<rect x="50.4216" y="29.708" width="5.69375" height="7.12813" rx="2.84687" transform="rotate(28.6765 50.4216 29.708)" fill="#4B4B4B" stroke="black"/>
<path d="M58.7608 9.53495C59.5072 8.63745 60.9671 9.17972 60.9466 10.3468C60.9316 11.1987 60.0793 11.7802 59.2807 11.4836C58.482 11.1869 58.216 10.19 58.7608 9.53495Z" fill="#4B4B4B" stroke="black"/>
<mask id="path-22-inside-1_209_5017" fill="white">
<path fill-rule="evenodd" clip-rule="evenodd" d="M45.6621 25.5019C45.4892 25.4284 45.3183 25.3458 45.15 25.2537C42.3926 23.7456 41.3799 20.2876 42.8881 17.5302C44.055 15.3968 46.389 14.3078 48.6627 14.6227C52.7504 9.71708 59.8637 8.22089 65.6775 11.4008L83.6853 21.2501C90.2937 24.8646 92.7208 33.1519 89.1063 39.7603C86.3477 44.804 80.8672 47.412 75.4885 46.7574L75.7866 48.5309C76.1629 50.7696 74.6532 52.8895 72.4145 53.2658C70.1758 53.6421 68.0559 52.1324 67.6796 49.8937L66.9722 45.6852C66.8346 44.8666 66.9492 44.0638 67.2594 43.3563L58.5203 38.5765L56.8656 41.6018C55.7762 43.5934 53.2786 44.3249 51.2869 43.2356C49.2953 42.1462 48.5638 39.6486 49.6532 37.6569L51.3449 34.5639C48.2115 32.3903 46.2312 29.0759 45.6621 25.5019Z"/>
</mask>
<path fill-rule="evenodd" clip-rule="evenodd" d="M45.6621 25.5019C45.4892 25.4284 45.3183 25.3458 45.15 25.2537C42.3926 23.7456 41.3799 20.2876 42.8881 17.5302C44.055 15.3968 46.389 14.3078 48.6627 14.6227C52.7504 9.71708 59.8637 8.22089 65.6775 11.4008L83.6853 21.2501C90.2937 24.8646 92.7208 33.1519 89.1063 39.7603C86.3477 44.804 80.8672 47.412 75.4885 46.7574L75.7866 48.5309C76.1629 50.7696 74.6532 52.8895 72.4145 53.2658C70.1758 53.6421 68.0559 52.1324 67.6796 49.8937L66.9722 45.6852C66.8346 44.8666 66.9492 44.0638 67.2594 43.3563L58.5203 38.5765L56.8656 41.6018C55.7762 43.5934 53.2786 44.3249 51.2869 43.2356C49.2953 42.1462 48.5638 39.6486 49.6532 37.6569L51.3449 34.5639C48.2115 32.3903 46.2312 29.0759 45.6621 25.5019Z" fill="url(#paint0_linear_209_5017)"/>
<path d="M45.6621 25.5019L46.6496 25.3446L46.5625 24.7979L46.053 24.5815L45.6621 25.5019ZM48.6627 14.6227L48.5255 15.6132L49.0755 15.6894L49.431 15.2628L48.6627 14.6227ZM75.4885 46.7574L75.6093 45.7647L74.2804 45.603L74.5023 46.9232L75.4885 46.7574ZM75.7866 48.5309L76.7728 48.3652L76.7728 48.3652L75.7866 48.5309ZM72.4145 53.2658L72.2487 52.2796L72.4145 53.2658ZM67.6796 49.8937L68.6658 49.7279L67.6796 49.8937ZM66.9722 45.6852L65.986 45.851L66.9722 45.6852ZM67.2594 43.3563L68.1752 43.758L68.5433 42.9187L67.7393 42.479L67.2594 43.3563ZM58.5203 38.5765L59.0002 37.6991L58.1228 37.2193L57.6429 38.0966L58.5203 38.5765ZM49.6532 37.6569L50.5305 38.1368L49.6532 37.6569ZM51.3449 34.5639L52.2222 35.0438L52.6538 34.2548L51.9149 33.7422L51.3449 34.5639ZM46.053 24.5815C45.9104 24.5209 45.7692 24.4526 45.6299 24.3764L44.6702 26.1311C44.8674 26.239 45.0679 26.336 45.2711 26.4223L46.053 24.5815ZM45.6299 24.3764C43.357 23.1333 42.5223 20.283 43.7654 18.0101L42.0107 17.0504C40.2375 20.2923 41.4282 24.3579 44.6702 26.1311L45.6299 24.3764ZM43.7654 18.0101C44.7265 16.253 46.6496 15.3534 48.5255 15.6132L48.7999 13.6321C46.1283 13.2622 43.3834 14.5407 42.0107 17.0504L43.7654 18.0101ZM49.431 15.2628C53.2186 10.7173 59.8111 9.33194 65.1977 12.2781L66.1574 10.5234C59.9163 7.10985 52.2822 8.71686 47.8945 13.9825L49.431 15.2628ZM65.1977 12.2781L83.2054 22.1275L84.1652 20.3728L66.1574 10.5234L65.1977 12.2781ZM83.2054 22.1275C89.3293 25.4769 91.5784 33.1566 88.229 39.2805L89.9837 40.2402C93.8632 33.1472 91.2581 24.2523 84.1652 20.3728L83.2054 22.1275ZM88.229 39.2805C85.6734 43.9529 80.5955 46.3716 75.6093 45.7647L75.3677 47.7501C81.1388 48.4524 87.022 45.655 89.9837 40.2402L88.229 39.2805ZM74.5023 46.9232L74.8005 48.6967L76.7728 48.3652L76.4747 46.5916L74.5023 46.9232ZM74.8005 48.6967C75.0852 50.3907 73.9428 51.9949 72.2487 52.2796L72.5802 54.252C75.3636 53.7841 77.2406 51.1485 76.7728 48.3652L74.8005 48.6967ZM72.2487 52.2796C70.5547 52.5644 68.9505 51.4219 68.6658 49.7279L66.6934 50.0594C67.1613 52.8428 69.7969 54.7198 72.5802 54.252L72.2487 52.2796ZM68.6658 49.7279L67.9583 45.5195L65.986 45.851L66.6934 50.0594L68.6658 49.7279ZM67.9583 45.5195C67.854 44.8985 67.9408 44.2926 68.1752 43.758L66.3436 42.9547C65.9576 43.835 65.8152 44.8346 65.986 45.851L67.9583 45.5195ZM67.7393 42.479L59.0002 37.6991L58.0404 39.4538L66.7796 44.2337L67.7393 42.479ZM57.6429 38.0966L55.9882 41.1219L57.7429 42.0816L59.3976 39.0563L57.6429 38.0966ZM55.9882 41.1219C55.1639 42.629 53.2739 43.1825 51.7668 42.3582L50.8071 44.1129C53.2833 45.4673 56.3886 44.5578 57.7429 42.0816L55.9882 41.1219ZM51.7668 42.3582C50.2597 41.5339 49.7062 39.6439 50.5305 38.1368L48.7758 37.1771C47.4214 39.6533 48.3309 42.7586 50.8071 44.1129L51.7668 42.3582ZM50.5305 38.1368L52.2222 35.0438L50.4675 34.084L48.7758 37.1771L50.5305 38.1368ZM51.9149 33.7422C49.0133 31.7294 47.1775 28.6592 46.6496 25.3446L44.6745 25.6591C45.285 29.4926 47.4097 33.0511 50.7749 35.3856L51.9149 33.7422Z" fill="black" mask="url(#path-22-inside-1_209_5017)"/>
<path d="M70.6499 17.7695C71.6906 18.2698 71.7995 19.7091 70.8458 20.3602L70.3267 20.7146C69.3731 21.3657 68.0723 20.7404 67.9852 19.589L67.9378 18.9622C67.8507 17.8108 69.0427 16.9969 70.0834 17.4972L70.6499 17.7695Z" fill="#B6ACAC" stroke="black"/>
<ellipse cx="53.612" cy="13.14" rx="0.632473" ry="0.660897" transform="rotate(53.6604 53.612 13.14)" fill="#171515"/>
<circle cx="58.2462" cy="20.3384" r="1.43438" transform="rotate(28.6765 58.2462 20.3384)" fill="#171515"/>
<g filter="url(#filter0_i_209_5017)">
<rect x="69.3469" y="13.5835" width="13.7643" height="4.93645" rx="2.46823" transform="rotate(88.0722 69.3469 13.5835)" fill="#C4C4C4"/>
</g>
<rect x="68.864" y="14.1" width="12.7643" height="3.93645" rx="1.96823" transform="rotate(88.0722 68.864 14.1)" stroke="black"/>
<circle cx="66.207" cy="16.2456" r="0.717188" transform="rotate(28.6765 66.207 16.2456)" fill="#171515"/>
<ellipse cx="67.7308" cy="18.4414" rx="0.717188" ry="0.478125" transform="rotate(28.6765 67.7308 18.4414)" fill="#171515"/>
<circle cx="67.0784" cy="21.6269" r="1.19531" transform="rotate(28.6765 67.0784 21.6269)" fill="#171515"/>
<circle cx="67.5697" cy="25.7105" r="0.717188" transform="rotate(28.6765 67.5697 25.7105)" fill="#171515"/>
<defs>
<filter id="filter0_i_209_5017" x="64.4949" y="13.6651" width="5.23349" height="17.7594" filterUnits="userSpaceOnUse" color-interpolation-filters="sRGB">
<feFlood flood-opacity="0" result="BackgroundImageFix"/>
<feBlend mode="normal" in="SourceGraphic" in2="BackgroundImageFix" result="shape"/>
<feColorMatrix in="SourceAlpha" type="matrix" values="0 0 0 0 0 0 0 0 0 0 0 0 0 0 0 0 0 0 127 0" result="hardAlpha"/>
<feOffset dy="4"/>
<feGaussianBlur stdDeviation="2"/>
<feComposite in2="hardAlpha" operator="arithmetic" k2="-1" k3="1"/>
<feColorMatrix type="matrix" values="0 0 0 0 0 0 0 0 0 0 0 0 0 0 0 0 0 0 0.25 0"/>
<feBlend mode="normal" in2="shape" result="effect1_innerShadow_209_5017"/>
</filter>
<linearGradient id="paint0_linear_209_5017" x1="50.7339" y1="14.2541" x2="80.0081" y2="44.5356" gradientUnits="userSpaceOnUse">
<stop stop-color="#BF9393"/>
<stop offset="1" stop-color="#323841"/>
</linearGradient>
</defs>
</svg>

<svg width="98" height="74" fill="none" xmlns="http://www.w3.org/2000/svg"><g opacity=".37" fill="#6FB5D2"><ellipse cx="23.428" cy="39.698" rx="5.395" ry="5.242" transform="rotate(26.35 23.428 39.698)"/><ellipse cx="32.533" cy="44.208" rx="5.395" ry="5.242" transform="rotate(26.35 32.533 44.208)"/><ellipse cx="21.564" cy="46.144" rx="3.854" ry="3.745" transform="rotate(26.35 21.564 46.144)"/><ellipse cx="28.22" cy="49.441" rx="3.854" ry="3.745" transform="rotate(26.35 28.22 49.441)"/><path d="m25.181 40.262 5.086 2.52-2.81 5.673-5.086-2.52z"/></g><g opacity=".55" fill="#6FB5D2"><ellipse cx="24.008" cy="40.651" rx="4.495" ry="4.28" transform="rotate(26.35 24.008 40.651)"/><ellipse cx="31.593" cy="44.408" rx="4.495" ry="4.28" transform="rotate(26.35 31.593 44.408)"/><ellipse cx="22.503" cy="45.924" rx="3.211" ry="3.057" transform="rotate(26.35 22.503 45.924)"/><ellipse cx="28.048" cy="48.67" rx="3.211" ry="3.057" transform="rotate(26.35 28.048 48.67)"/><path d="m25.466 41.126 4.237 2.098-2.295 4.633-4.237-2.098z"/></g><ellipse cx="24.701" cy="41.374" rx="3.594" ry="3.373" transform="rotate(26.35 24.701 41.374)" fill="#7FDEE4"/><ellipse cx="30.767" cy="44.378" rx="3.594" ry="3.373" transform="rotate(26.35 30.767 44.378)" fill="#7FDEE4"/><ellipse cx="23.527" cy="45.533" rx="2.567" ry="2.409" transform="rotate(26.35 23.527 45.533)" fill="#7FDEE4"/><ellipse cx="27.961" cy="47.729" rx="2.567" ry="2.409" transform="rotate(26.35 27.96 47.73)" fill="#7FDEE4"/><path fill="#7FDEE4" d="m25.867 41.755 3.388 1.678-1.808 3.65-3.388-1.678zM31.782 38.27c.487-.132.88-.341 1.18-.627.306-.284.536-.58.69-.89.173-.35.25-.688.233-1.014-.01-.33-.054-.63-.133-.904a.607.607 0 0 1 .061-.415 1.13 1.13 0 0 1 .355-.404 2.07 2.07 0 0 1 .551-.297 2.02 2.02 0 0 1 .643-.106c.221 0 .429.047.623.143.216.107.36.269.433.484.075.21.107.44.094.688a3.14 3.14 0 0 1-.134.752 4.066 4.066 0 0 1-.243.636 3.312 3.312 0 0 1-.734.981 4.513 4.513 0 0 1-1.027.714 5.41 5.41 0 0 1-1.197.452 7.441 7.441 0 0 1-1.29.221l-.105-.414zM28.476 36.614c-.19-.467-.262-.906-.217-1.319.04-.415.137-.777.29-1.088.174-.349.395-.615.666-.799.267-.192.534-.34.799-.443a.607.607 0 0 0 .293-.3c.074-.149.11-.325.106-.527 0-.207-.033-.413-.098-.617a2.02 2.02 0 0 0-.305-.576 1.374 1.374 0 0 0-.49-.409.818.818 0 0 0-.648-.052 1.75 1.75 0 0 0-.605.343c-.19.161-.362.348-.516.562-.152.208-.271.4-.36.578-.186.377-.298.77-.335 1.18a4.51 4.51 0 0 0 .055 1.248c.07.415.192.824.365 1.227.17.409.372.795.606 1.16l.394-.168z"/><path d="M48 36h-4.111l-.822 3.667L48 36zm-8.222 18.333H19.222L11 39.667h32.067l-3.29 14.666zm0 0 3.289-14.666-3.29 14.666zm0 0 4.713 4.204c1.295 1.155.378 3.13-1.453 3.13H19.222l20.556-7.334zm-20.556 7.334c1.09 0 2.136.386 2.907 1.074.771.687 1.204 1.62 1.204 2.592 0 .973-.433 1.905-1.204 2.593-.77.688-1.816 1.074-2.907 1.074-1.09 0-2.136-.386-2.907-1.074-.77-.688-1.204-1.62-1.204-2.593 0-.972.433-1.905 1.204-2.592.771-.688 1.817-1.074 2.907-1.074zm16.445 3.666c0 .973.433 1.905 1.204 2.593.77.688 1.816 1.074 2.907 1.074 1.09 0 2.136-.386 2.907-1.074.77-.688 1.204-1.62 1.204-2.593 0-.972-.433-1.905-1.204-2.592-.771-.688-1.817-1.074-2.907-1.074s-2.136.386-2.907 1.074c-.771.687-1.204 1.62-1.204 2.592v0z" stroke="#D5D5D5" stroke-width="2" stroke-linecap="round" stroke-linejoin="round"/><rect x="64.506" y="40.575" width="5.694" height="7.128" rx="2.847" transform="rotate(-.694 64.506 40.575)" fill="#4B4B4B" stroke="#000"/><rect x="50.422" y="29.708" width="5.694" height="7.128" rx="2.847" transform="rotate(28.677 50.422 29.708)" fill="#4B4B4B" stroke="#000"/><path d="M58.76 9.535c.747-.898 2.207-.355 2.187.812a1.236 1.236 0 1 1-2.186-.812z" fill="#4B4B4B" stroke="#000"/><mask id="b" fill="#fff"><path fill-rule="evenodd" clip-rule="evenodd" d="M45.662 25.502a5.69 5.69 0 0 1 3-10.88c4.088-4.905 11.202-6.401 17.015-3.221l18.008 9.85c6.609 3.614 9.036 11.9 5.421 18.51-2.758 5.043-8.239 7.651-13.617 6.996l.298 1.774a4.11 4.11 0 1 1-8.107 1.363l-.708-4.209a4.092 4.092 0 0 1 .287-2.329l-8.739-4.78-1.654 3.026a4.11 4.11 0 0 1-7.213-3.945l1.692-3.093a13.622 13.622 0 0 1-5.683-9.062z"/></mask><path fill-rule="evenodd" clip-rule="evenodd" d="M45.662 25.502a5.69 5.69 0 0 1 3-10.88c4.088-4.905 11.202-6.401 17.015-3.221l18.008 9.85c6.609 3.614 9.036 11.9 5.421 18.51-2.758 5.043-8.239 7.651-13.617 6.996l.298 1.774a4.11 4.11 0 1 1-8.107 1.363l-.708-4.209a4.092 4.092 0 0 1 .287-2.329l-8.739-4.78-1.654 3.026a4.11 4.11 0 0 1-7.213-3.945l1.692-3.093a13.622 13.622 0 0 1-5.683-9.062z" fill="url(#a)"/><path d="m45.662 25.502.988-.157-.087-.547-.51-.216-.39.92zm3-10.88-.136.991.55.076.355-.426-.768-.64zM75.49 46.758l.12-.992-1.329-.162.222 1.32.987-.166zm.298 1.774.986-.166-.986.166zm-3.373 4.735-.165-.986.166.986zm-4.734-3.372.986-.166-.986.166zm-.708-4.209-.986.166.986-.166zm.287-2.329.916.402.368-.84-.804-.439-.48.877zm-8.739-4.78L59 37.7l-.877-.48-.48.878.877.48zm-8.867-.92.878.48-.878-.48zm1.692-3.092.877.48.432-.79-.74-.512-.57.822zm-5.292-9.983a4.764 4.764 0 0 1-.423-.205l-.96 1.755c.197.108.398.205.601.291l.782-1.84zm-.423-.205a4.69 4.69 0 0 1-1.865-6.366l-1.754-.96a6.69 6.69 0 0 0 2.66 9.081l.959-1.755zm-1.865-6.366a4.693 4.693 0 0 1 4.76-2.397l.275-1.98a6.693 6.693 0 0 0-6.79 3.417l1.755.96zm5.666-2.747c3.788-4.546 10.38-5.931 15.767-2.985l.96-1.755c-6.242-3.413-13.876-1.806-18.264 3.46l1.537 1.28zm15.767-2.985 18.007 9.85.96-1.755-18.008-9.85-.96 1.755zm18.007 9.85c6.124 3.349 8.373 11.029 5.024 17.153l1.755.96c3.88-7.094 1.274-15.989-5.819-19.868l-.96 1.755zM88.23 39.28c-2.556 4.672-7.633 7.09-12.62 6.484l-.241 1.985c5.77.702 11.654-2.095 14.616-7.51l-1.755-.96zm-13.727 7.642.299 1.774 1.972-.332-.298-1.773-1.973.331zm.299 1.774a3.11 3.11 0 0 1-2.552 3.583l.331 1.972a5.11 5.11 0 0 0 4.193-5.887l-1.972.332zm-2.552 3.583a3.11 3.11 0 0 1-3.583-2.552l-1.973.331a5.11 5.11 0 0 0 5.887 4.193l-.331-1.972zm-3.583-2.552-.708-4.209-1.972.332.707 4.208 1.973-.331zm-.708-4.209a3.092 3.092 0 0 1 .217-1.761l-1.831-.803a5.092 5.092 0 0 0-.358 2.896l1.972-.331zm-.219-3.04L59 37.699l-.96 1.755 8.74 4.78.96-1.755zm-10.096-4.382-1.655 3.025 1.755.96 1.655-3.026-1.755-.96zm-1.655 3.025a3.11 3.11 0 0 1-4.221 1.236l-.96 1.755a5.11 5.11 0 0 0 6.936-2.031l-1.755-.96zm-4.221 1.236a3.11 3.11 0 0 1-1.236-4.221l-1.755-.96a5.11 5.11 0 0 0 2.031 6.936l.96-1.755zm-1.236-4.221 1.691-3.093-1.755-.96-1.691 3.093 1.755.96zm1.384-4.395a12.622 12.622 0 0 1-5.265-8.397l-1.975.314a14.622 14.622 0 0 0 6.1 9.727l1.14-1.644z" fill="#000" mask="url(#b)"/><path d="M70.65 17.77a1.5 1.5 0 0 1 .196 2.59l-.52.355a1.5 1.5 0 0 1-2.34-1.126l-.048-.627a1.5 1.5 0 0 1 2.145-1.465l.567.273z" fill="#B6ACAC" stroke="#000"/><ellipse cx="53.612" cy="13.14" rx=".632" ry=".661" transform="rotate(53.66 53.612 13.14)" fill="#171515"/><circle cx="58.246" cy="20.338" r="1.434" transform="rotate(28.677 58.246 20.338)" fill="#171515"/><g filter="url(#c)"><rect x="69.347" y="13.584" width="13.764" height="4.936" rx="2.468" transform="rotate(88.072 69.347 13.584)" fill="#C4C4C4"/></g><rect x="68.864" y="14.1" width="12.764" height="3.936" rx="1.968" transform="rotate(88.072 68.864 14.1)" stroke="#000"/><circle cx="66.207" cy="16.246" r=".717" transform="rotate(28.677 66.207 16.246)" fill="#171515"/><ellipse cx="67.731" cy="18.441" rx=".717" ry=".478" transform="rotate(28.677 67.73 18.441)" fill="#171515"/><circle cx="67.078" cy="21.627" r="1.195" transform="rotate(28.677 67.078 21.627)" fill="#171515"/><circle cx="67.57" cy="25.71" r=".717" transform="rotate(28.677 67.57 25.71)" fill="#171515"/><defs><linearGradient id="a" x1="50.734" y1="14.254" x2="80.008" y2="44.536" gradientUnits="userSpaceOnUse"><stop stop-color="#BF9393"/><stop offset="1" stop-color="#323841"/></linearGradient><filter id="c" x="64.495" y="13.665" width="5.233" height="17.759" filterUnits="userSpaceOnUse" color-interpolation-filters="sRGB"><feFlood flood-opacity="0" result="BackgroundImageFix"/><feBlend in="SourceGraphic" in2="BackgroundImageFix" result="shape"/><feColorMatrix in="SourceAlpha" values="0 0 0 0 0 0 0 0 0 0 0 0 0 0 0 0 0 0 127 0" result="hardAlpha"/><feOffset dy="4"/><feGaussianBlur stdDeviation="2"/><feComposite in2="hardAlpha" operator="arithmetic" k2="-1" k3="1"/><feColorMatrix values="0 0 0 0 0 0 0 0 0 0 0 0 0 0 0 0 0 0 0.25 0"/><feBlend in2="shape" result="effect1_innerShadow_209_5017"/></filter></defs></svg>
